X: 34757
T: Road To Maclatchey
R: reel
M: 4/4
K: Dmixolydian
ADDE FGAB|cAGE cABG|AD D/D/D A,DFG|ABcA GCEG|
ADDE FGAB|cAGE cABG|AD D/D/D A,DFG|ABcA GCEG||
A~d3 adfd|(3cdc Bd cABG|ADDA A,DFG|ABcA GCEG|
A~d3 adfd|(3cdc Bd cdeg|=fage ^fded|cAGE D2 E/F/G||
Adfd adfd|(3cdc Bd cABG|ADDA A,D E/F/G|ABcA GCEG|
AdDd adfd|(3cdc Bd cdeg|=fage ^fded|cAGE ADdc||

